source/icons/volume-high.svg

<svg xmlns="http://www.w3.org/2000/svg" width="8" height="8" viewBox="0 0 8 8">
  <path d="M3.34 0l-1.34 2h-2v4h2l1.34 2h.66v-8h-.66zm1.66 1v1c.17 0 .34.02.5.06.86.22 1.5 1 1.5 1.94s-.63 1.72-1.5 1.94c-.16.04-.33.06-.5.06v1c.25 0 .48-.04.72-.09h.03c1.3-.33 2.25-1.51 2.25-2.91 0-1.4-.95-2.58-2.25-2.91-.23-.06-.49-.09-.75-.09zm0 2v2c.09 0 .18-.01.25-.03.43-.11.75-.51.75-.97 0-.46-.31-.86-.75-.97-.08-.02-.17-.03-.25-.03z"
  />
</svg>

<svg xmlns="http://www.w3.org/2000/svg" width="8" height="8" viewBox="0 0 8 8"><path d="M3.34 0L2 2H0v4h2l1.34 2H4V0h-.66zM5 1v1c.17 0 .34.02.5.06.86.22 1.5 1 1.5 1.94s-.63 1.72-1.5 1.94c-.16.04-.33.06-.5.06v1c.25 0 .48-.04.72-.09h.03C7.05 6.58 8 5.4 8 4c0-1.4-.95-2.58-2.25-2.91C5.52 1.03 5.26 1 5 1zm0 2v2c.09 0 .18-.01.25-.03.43-.11.75-.51.75-.97 0-.46-.31-.86-.75-.97C5.17 3.01 5.08 3 5 3z"/></svg>
